Obsidian-SemiLight/actions/24s/dialog-messages.svg

<svg viewBox="0 0 24 24" xmlns="http://www.w3.org/2000/svg"><path d="m4 5v10l3 4v-3-1h13v-10zm1 1h14v8h-14z" fill="#4d4d4d"/></svg>

<svg xmlns="http://www.w3.org/2000/svg" viewBox="0 0 24 24">
  <defs id="defs3051">
    <style type="text/css" id="current-color-scheme">
      .ColorScheme-Text {
        color:#4d4d4d;
      }
      </style>
  </defs>
 <path style="fill:currentColor;fill-opacity:1;stroke:none" 
     d="M 4 5 L 4 15 L 7 19 L 7 16 L 7 15 L 20 15 L 20 5 L 4 5 z M 5 6 L 19 6 L 19 14 L 5 14 L 5 6 z "
     class="ColorScheme-Text"
     />
</svg>
